X:1
T:Christ Unser Herr, 87.87.87.877
T:Christ Unser Herr, 87.87.87.877
T:Johann Walther, 1524
T:Public Domain Courtesy of the Cyber Hymnal™
C:Johann Walther, 1524
Z:Public Domain
Z:Courtesy of the Cyber Hymnal™
%%score ( 1 2 ) ( 3 4 )
L:1/8
M:none
K:Bb
V:1 treble 
V:2 treble 
V:3 bass 
V:4 bass 
V:1
 C4 | E2 F2 G2 F2 | B2 A2 [DG]2 z G | B3 A G2 F2 | (E2 D2) C4 | C4 E2 F2 x2 | G2 F2 B2 A2 | %7
 [DG]2 z G B3 A | G2 F2 (E2 D2) | C2 z C F2 F2 x2 | D2 G2 (G2 F2) | [B,G]2 z [CG] [Ec]2 [Fc]2 | %12
 [Fd]2 (B z z B) [FA]2 | [DG]2 z [EG] B2 A2 | [EG]2 [CF]2 [DG]2 [CE]2 | [=B,D]2 z C E2 F2 | %16
 [DG]2 E z z E [B,D]2 | C2 z [Ec] [Ec]2 [Fc]2 | d3 z c (B2 A2) | [DG]4 |] %20
V:2
 C4 | C4 D4 | D4- E2 x2 | D4- D4 | B,4 C4 | C4 C4 x2 | D4 D4- | x2 (E2 D4-) | D4 B,4 | C2 C C4 x3 | %10
 D4 C4 | x8 | x2 D2 c2 E2 | x4 F4 | x8 | x3 C C4 | x2 E2 F2 C2 | C2 x6 | F2 (E2 F4) x | x4 |] %20
V:3
 E,4 | z2 _A,2 B,4 | [E,G,]2 [F,A,]2 B,4 | F,2 C2 [G,B,]2 [D,A,]2 | [E,G,]2 [B,,F,]2 [C,E,]4 | %5
 E,6 z2 _A,2 | B,4 [E,G,]2 [F,A,]2 | B,4 (F,2 C2) | [G,B,]2 [D,A,]2 ([E,G,]2 [B,,F,]2) | %9
 [C,E,]2 z [C,E,] F,6 | z2 B,2 A,4 | [G,,G,]2 z [E,G,] [C,G,]2 [F,A,]2 | [D,A,]2 G,4 [D,C]2 | %13
 [G,B,]2 z [E,B,] B,2 C2 | [E,B,]2 [F,A,]2 G,4- | [G,,G,]2 z [E,G,] [C,G,]2 [F,A,]2 | %16
 [B,,B,]2 [E,G,]2 [_A,,_A,]2 [B,,F,]2 | [C,E,]2 z [C,G,] [C,G,]2 [F,_A,]2 | %18
 [B,,B,]2 [C,G,]2 (F,2 C2) x | [G,=B,]4 |] %20
V:4
 (C,2 B,,2) | (_A,,4 G,,2) D,2 | x4 (G,2 E,2) | D,4 x4 | x8 | (C,2 B,,2) _A,,4 x2 | G,,2 D,2 x4 | %7
 (G,2 E,2) D,4 | x8 | x4 A,,2 D,2 x2 | (B,,4 C,2 D,2) | x8 | x2 (G,2 C,2) x2 | x4 D,4 | %14
 x4 =B,,2 C,2 | x8 | x8 | x8 | x4 D,4 x | x4 |] %20

